public/tech/cloudflare.svg

<?xml version="1.0" encoding="UTF-8"?>
<svg width="512px" height="76px" viewBox="0 0 512 76" version="1.1" xmlns="http://www.w3.org/2000/svg" preserveAspectRatio="xMidYMid">
    <title>Cloudflare</title>
    <g>
        <path d="M214.633412,47.4001569 L222.137725,47.4001569 L222.137725,68.1035294 L235.233882,68.1035294 L235.233882,74.7469804 L214.633412,74.7469804 L214.633412,47.4001569 Z M242.994196,61.1513725 L242.994196,61.0710588 C242.994196,53.2153725 249.251137,46.8530196 257.603765,46.8530196 C265.953882,46.8530196 272.13302,53.1476078 272.13302,60.9907451 L272.13302,61.0710588 C272.13302,68.9242353 265.876078,75.289098 257.523451,75.289098 C249.170824,75.289098 242.991686,69.0020392 242.991686,61.1513725 L242.994196,61.1513725 Z M264.483137,61.1513725 L264.483137,61.0710588 C264.483137,57.1231373 261.664627,53.6872157 257.523451,53.6872157 C253.382275,53.6872157 250.684235,57.0428235 250.684235,60.9907451 L250.684235,61.0710588 C250.684235,65.0164706 253.500235,68.454902 257.603765,68.454902 C261.704784,68.454902 264.483137,65.0967843 264.483137,61.1513725 L264.483137,61.1513725 Z M281.311373,62.7526275 L281.311373,47.4101961 L288.923608,47.4101961 L288.923608,62.6070588 C288.923608,66.5524706 290.888784,68.4222745 293.905569,68.4222745 C296.919843,68.4222745 298.887529,66.6227451 298.887529,62.7952941 L298.887529,47.4001569 L306.497255,47.4001569 L306.497255,62.5568627 C306.497255,71.3888627 301.515294,75.2464314 293.825255,75.2464314 C286.135216,75.2464314 281.301333,71.2985098 281.301333,62.7476078 M317.974588,47.4076863 L328.412863,47.4076863 C338.070588,47.4076863 343.67498,53.0321569 343.67498,60.915451 L343.67498,60.9957647 C343.67498,68.876549 337.990275,74.7419608 328.254745,74.7419608 L317.974588,74.7419608 L317.974588,47.4001569 L317.974588,47.4101961 L317.974588,47.4076863 Z M328.520784,68.0282353 C333.008314,68.0282353 335.974902,65.5309804 335.974902,61.1162353 L335.974902,61.0359216 C335.974902,56.6588235 333.000784,54.1214118 328.520784,54.1214118 L325.466353,54.1214118 L325.466353,68.0282353 L328.520784,68.0282353 Z M354.575059,47.4001569 L376.212078,47.4001569 L376.212078,54.0461176 L362.066824,54.0461176 L362.066824,58.6892549 L374.856784,58.6892549 L374.856784,64.9763137 L362.066824,64.9763137 L362.066824,74.7469804 L354.575059,74.7469804 L354.575059,47.4001569 Z M386.642824,47.4001569 L394.144627,47.4001569 L394.144627,68.1035294 L407.243294,68.1035294 L407.243294,74.7469804 L386.642824,74.7469804 L386.642824,47.4001569 Z M426.832314,47.206902 L434.055529,47.206902 L445.57302,74.7419608 L437.536627,74.7419608 L435.558902,69.8578824 L425.120627,69.8578824 L423.193098,74.7419608 L415.304784,74.7419608 L426.822275,47.206902 L426.832314,47.206902 L426.832314,47.206902 Z M433.40549,63.9623529 L430.388706,56.1894902 L427.334275,63.9623529 L433.40549,63.9623529 Z M455.233255,47.4076863 L468.023216,47.4076863 C472.156863,47.4076863 475.023059,48.5069804 476.830118,50.3742745 C478.423843,51.9328627 479.224471,54.0511373 479.224471,56.7391373 L479.224471,56.819451 C479.224471,60.9957647 477.018353,63.7716078 473.657725,65.2122353 L480.112941,74.7419608 L471.454118,74.7419608 L466.007843,66.4596078 L462.72502,66.4596078 L462.72502,74.7419608 L455.223216,74.7419608 L455.223216,47.4001569 L455.233255,47.4101961 L455.233255,47.4076863 Z M467.679373,60.5339608 C470.229333,60.5339608 471.700078,59.2865882 471.700078,57.2963137 L471.700078,57.2185098 C471.700078,55.0701176 470.159059,53.9808627 467.639216,53.9808627 L462.735059,53.9808627 L462.735059,60.5465098 L467.686902,60.5465098 L467.679373,60.5364706 L467.679373,60.5339608 Z M490.044235,47.4001569 L511.801725,47.4001569 L511.801725,53.8453333 L497.468235,53.8453333 L497.468235,57.9814902 L510.456471,57.9814902 L510.456471,63.9648627 L497.468235,63.9648627 L497.468235,68.3018039 L512,68.3018039 L512,74.7469804 L490.044235,74.7469804 L490.044235,47.4001569 Z M198.211765,64.3563922 C197.162667,66.7557647 194.94902,68.454902 192.012549,68.454902 C187.921569,68.454902 185.095529,65.0164706 185.095529,61.0710588 L185.095529,60.9882353 C185.095529,57.0403137 187.841255,53.6847059 191.934745,53.6847059 C195.019294,53.6847059 197.37098,55.6021961 198.369882,58.2199216 L206.268235,58.2199216 C205.000784,51.7170196 199.348706,46.8505098 192.00502,46.8505098 C183.662431,46.8505098 177.395451,53.2153725 177.395451,61.068549 L177.395451,61.1488627 C177.395451,69.0020392 183.572078,75.2865882 191.927216,75.2865882 C199.062588,75.2865882 204.646902,70.6083137 206.120157,64.3438431 L198.201725,64.3438431 L198.211765,64.3538824 L198.211765,64.3563922 Z" fill="#000000"></path>
        <path d="M132.234039,32.6977255 C131.681882,32.6977255 131.137255,32.7178039 130.592627,32.7353725 C130.504399,32.74012 130.417716,32.7605158 130.336627,32.7956078 C130.043802,32.8952613 129.82104,33.1359571 129.744314,33.4356078 L127.410196,41.5899608 C126.403765,45.0961569 126.777725,48.3338039 128.469333,50.7105882 C130.020392,52.9091765 132.600471,54.1992157 135.732706,54.3498039 L148.394667,55.1178039 C148.771137,55.1378824 149.097412,55.3185882 149.295686,55.6172549 C149.506101,55.9404326 149.55345,56.3433572 149.423686,56.7065098 C149.215453,57.3013753 148.678572,57.7194949 148.050824,57.7756863 L134.894431,58.5436863 C127.74651,58.8749804 120.056471,64.7077647 117.358431,71.820549 L116.409725,74.3303529 C116.326887,74.5414441 116.351,74.7795362 116.474478,74.9697327 C116.597957,75.1599293 116.805625,75.2788545 117.032157,75.289108 L162.344157,75.289108 C162.885644,75.2912846 163.362056,74.9319222 163.508706,74.4106667 C164.313479,71.5178763 164.718804,68.5286041 164.713465,65.5259608 C164.713465,47.4051765 150.184157,32.7178039 132.254118,32.7178039" fill="#FBAD41"></path>
        <path d="M112.456784,74.2349804 L113.295059,71.2859608 C114.304,67.7797647 113.930039,64.5421176 112.240941,62.1653333 C110.684863,59.9667451 108.107294,58.6767059 104.972549,58.5261176 L45.5780392,57.7581176 C45.2032903,57.7512954 44.8544054,57.5656588 44.6393725,57.2586667 C44.428117,56.935899 44.3798374,56.5329504 44.5088627,56.1694118 C44.7189465,55.570659 45.2618255,55.151698 45.8942745,55.1002353 L105.843451,54.3322353 C112.961255,54.003451 120.651294,48.1681569 123.349333,41.0553725 L126.767686,32.0200784 C126.90567,31.6370238 126.94156,31.2237933 126.868078,30.822902 C122.972863,13.1990588 107.392,0 88.7642353,0 C71.5921569,0 57.0227451,11.1987451 51.7948235,26.7670588 C48.2750752,24.0904165 43.8669112,22.8571 39.4691765,23.3185882 C31.2370196,24.1468235 24.6111373,30.8530196 23.7929412,39.1755294 C23.5810953,41.2541362 23.7339814,43.3537722 24.2447059,45.3797647 C10.7921569,45.7813333 0,56.9198431 0,70.6083137 C0,71.8456471 0.0878431373,73.0654118 0.266039216,74.2550588 C0.339418496,74.8323928 0.831041709,75.2648491 1.41301961,75.2640012 L111.10149,75.2640012 C111.73592,75.2535572 112.287666,74.8264647 112.456784,74.214902" fill="#F6821F"></path>
    </g>
</svg>

<svg xmlns="http://www.w3.org/2000/svg" width="512" height="76" preserveAspectRatio="xMidYMid" viewBox="0 0 512 76"><title>Cloudflare</title><path d="M214.633 47.4h7.505v20.704h13.096v6.643h-20.6zm28.361 13.751v-.08c0-7.856 6.257-14.218 14.61-14.218 8.35 0 14.529 6.295 14.529 14.138v.08c0 7.853-6.257 14.218-14.61 14.218s-14.531-6.287-14.531-14.138zm21.49 0v-.08c0-3.948-2.82-7.384-6.96-7.384-4.142 0-6.84 3.356-6.84 7.304v.08c0 3.945 2.816 7.384 6.92 7.384 4.1 0 6.88-3.358 6.88-7.304m16.827 1.602V47.41h7.613v15.197c0 3.945 1.965 5.815 4.982 5.815 3.014 0 4.982-1.8 4.982-5.627V47.4h7.61v15.157c0 8.832-4.983 12.69-12.673 12.69s-12.524-3.948-12.524-12.5m36.674-15.34h10.438c9.658 0 15.262 5.625 15.262 13.508v.08c0 7.882-5.685 13.747-15.42 13.747h-10.28V47.4v.01zm10.546 20.621c4.487 0 7.454-2.497 7.454-6.912v-.08c0-4.377-2.974-6.915-7.454-6.915h-3.055v13.907zM354.575 47.4h21.637v6.646h-14.145v4.643h12.79v6.287h-12.79v9.771h-7.492zm32.068 0h7.502v20.704h13.098v6.643h-20.6zm40.19-.193h7.223l11.517 27.535h-8.036l-1.978-4.884H425.12l-1.928 4.884h-7.888l11.517-27.535zm6.572 16.755-3.016-7.773-3.055 7.773zm21.828-16.554h12.79c4.134 0 7 1.099 8.807 2.966 1.594 1.559 2.394 3.677 2.394 6.365v.08c0 4.177-2.206 6.953-5.566 8.393l6.455 9.53h-8.659l-5.446-8.282h-3.283v8.282h-7.502V47.4l.01.01zm12.446 13.126c2.55 0 4.021-1.247 4.021-3.238v-.077c0-2.149-1.54-3.238-4.06-3.238h-4.905v6.566h4.952l-.008-.01zM490.044 47.4h21.758v6.445h-14.334v4.136h12.988v5.984h-12.988v4.337H512v6.445h-21.956zM198.212 64.356c-1.05 2.4-3.263 4.099-6.2 4.099-4.09 0-6.916-3.439-6.916-7.384v-.083c0-3.948 2.745-7.303 6.839-7.303 3.084 0 5.436 1.917 6.435 4.535h7.898c-1.267-6.503-6.92-11.37-14.263-11.37-8.343 0-14.61 6.365-14.61 14.219v.08c0 7.853 6.177 14.138 14.532 14.138 7.136 0 12.72-4.679 14.193-10.943h-7.918l.01.01z"/><path fill="#fbad41" d="M132.234 32.698c-.552 0-1.097.02-1.641.037a.8.8 0 0 0-.256.06.92.92 0 0 0-.593.64l-2.334 8.155c-1.006 3.506-.632 6.744 1.06 9.12 1.55 2.2 4.13 3.49 7.263 3.64l12.662.768c.376.02.702.2.9.5.211.322.258.725.129 1.089a1.61 1.61 0 0 1-1.373 1.069l-13.157.768c-7.147.331-14.838 6.164-17.536 13.277l-.948 2.51a.703.703 0 0 0 .622.958h45.312a1.205 1.205 0 0 0 1.165-.878 33 33 0 0 0 1.204-8.885c0-18.12-14.529-32.808-32.459-32.808"/><path fill="#f6821f" d="m112.457 74.235.838-2.949c1.009-3.506.635-6.744-1.054-9.12-1.556-2.2-4.134-3.49-7.268-3.64l-59.395-.768a1.17 1.17 0 0 1-.939-.5 1.24 1.24 0 0 1-.13-1.089 1.61 1.61 0 0 1 1.385-1.069l59.95-.768c7.117-.329 14.807-6.164 17.505-13.277l3.419-9.035a2.3 2.3 0 0 0 .1-1.197C122.973 13.199 107.392 0 88.764 0c-17.172 0-31.741 11.199-36.97 26.767A17.37 17.37 0 0 0 39.47 23.32c-8.232.828-14.858 7.534-15.676 15.857a18 18 0 0 0 .452 6.204C10.792 45.78 0 56.92 0 70.608c0 1.238.088 2.457.266 3.647.073.577.565 1.01 1.147 1.009h109.688a1.43 1.43 0 0 0 1.356-1.05"/></svg>
